icons/Hail Day--1504918.svg

<svg enable-background="new 0 0 16 16" viewBox="0 0 16 16" xmlns="http://www.w3.org/2000/svg"><path d="m13 11h-9.5c-1.93 0-3.5-1.57-3.5-3.5 0-1.902 1.525-3.454 3.416-3.499.787-1.81 2.583-3.001 4.584-3.001 2.409 0 4.436 1.688 4.902 4.001 1.748-.036 3.098 1.312 3.098 2.999 0 1.654-1.346 3-3 3zm-9.5-6c-1.378 0-2.5 1.122-2.5 2.5 0 1.379 1.122 2.5 2.5 2.5h9.5c1.103 0 2-.897 2-2s-.897-2-2-2c-.147 0-.297.017-.428.042-.137.024-.28-.008-.392-.091-.112-.084-.184-.211-.197-.35-.208-2.053-1.92-3.601-3.983-3.601-1.703 0-3.221 1.079-3.777 2.684-.085.245-.341.386-.594.321-.023-.005-.089-.005-.129-.005z"/><path d="m13 6c-.228 0-.448-.025-.654-.073-.27-.063-.436-.333-.372-.602.062-.268.331-.434.601-.372.131.031.275.047.425.047 1.103 0 2-.897 2-2s-.897-2-2-2c-.891 0-1.685.599-1.93 1.457-.076.265-.351.416-.618.344-.265-.076-.419-.353-.343-.618.367-1.286 1.556-2.183 2.891-2.183 1.654 0 3 1.346 3 3s-1.346 3-3 3z"/><path d="m4.5 15c-.827 0-1.5-.673-1.5-1.5s.673-1.5 1.5-1.5 1.5.673 1.5 1.5-.673 1.5-1.5 1.5zm0-2c-.276 0-.5.225-.5.5s.224.5.5.5.5-.225.5-.5-.224-.5-.5-.5z"/><path d="m11.5 15c-.827 0-1.5-.673-1.5-1.5s.673-1.5 1.5-1.5 1.5.673 1.5 1.5-.673 1.5-1.5 1.5zm0-2c-.275 0-.5.225-.5.5s.225.5.5.5.5-.225.5-.5-.225-.5-.5-.5z"/></svg>

<?xml version="1.0" encoding="utf-8"?>
<!DOCTYPE svg PUBLIC "-//W3C//DTD SVG 1.0//EN" "http://www.w3.org/TR/2001/REC-SVG-20010904/DTD/svg10.dtd">
<svg    fill="#000000" xmlns="http://www.w3.org/2000/svg" xmlns:xlink="http://www.w3.org/1999/xlink" version="1.1" x="0px" y="0px" viewBox="0 0 16 16" style="enable-background:new 0 0 16 16;" xml:space="preserve"><path d="M13,11H3.5C1.57,11,0,9.43,0,7.5c0-1.902,1.525-3.454,3.416-3.499C4.203,2.191,5.999,1,8,1c2.409,0,4.436,1.688,4.902,4.001  C14.65,4.965,16,6.313,16,8C16,9.654,14.654,11,13,11z M3.5,5C2.122,5,1,6.122,1,7.5C1,8.879,2.122,10,3.5,10H13  c1.103,0,2-0.897,2-2c0-1.103-0.897-2-2-2c-0.147,0-0.297,0.017-0.428,0.042c-0.137,0.024-0.28-0.008-0.392-0.091  c-0.112-0.084-0.184-0.211-0.197-0.35C11.775,3.548,10.063,2,8,2C6.297,2,4.779,3.079,4.223,4.684  C4.138,4.929,3.882,5.07,3.629,5.005C3.606,5,3.54,5,3.5,5z"></path><path d="M13,6c-0.228,0-0.448-0.025-0.654-0.073c-0.27-0.063-0.436-0.333-0.372-0.602c0.062-0.268,0.331-0.434,0.601-0.372  C12.706,4.984,12.85,5,13,5c1.103,0,2-0.897,2-2s-0.897-2-2-2c-0.891,0-1.685,0.599-1.93,1.457  c-0.076,0.265-0.351,0.416-0.618,0.344c-0.265-0.076-0.419-0.353-0.343-0.618C10.476,0.897,11.665,0,13,0c1.654,0,3,1.346,3,3  S14.654,6,13,6z"></path><path d="M4.5,15C3.673,15,3,14.327,3,13.5S3.673,12,4.5,12S6,12.673,6,13.5S5.327,15,4.5,15z M4.5,13C4.224,13,4,13.225,4,13.5  S4.224,14,4.5,14S5,13.775,5,13.5S4.776,13,4.5,13z"></path><path d="M11.5,15c-0.827,0-1.5-0.673-1.5-1.5s0.673-1.5,1.5-1.5s1.5,0.673,1.5,1.5S12.327,15,11.5,15z M11.5,13  c-0.275,0-0.5,0.225-0.5,0.5s0.225,0.5,0.5,0.5s0.5-0.225,0.5-0.5S11.775,13,11.5,13z"></path></svg>
